X: 24
M: 4/4
L: 1/8
K: D
f2af e^/gfe | d2[f2d2] Hd2 || de |
f2de f2"b."af | e2cd e2g2 |\
f2de fgaf| edcB A4 |
f2de f2"b."af | e2cd e2g2 |\
f2af e^/gfe | d2[f2d2] Hd2 |]
P: VAR:
"a."B2 || "b."a2 |] y8 y8 y8 y8 y8 y8 y8 y8


